X:1
T:For the Glories of God's Grace
T:For the Glories of God's Grace
T:Copyright © 
Z:Copyright ©
%%score ( 1 2 ) ( 3 4 )
L:1/8
M:4/4
K:Bb
V:1 treble nm="SOPRANO ALTO" snm="S. A."
V:2 treble 
V:3 bass nm="TENOR BASS" snm="T. B."
V:4 bass 
V:1
 B,2 D2 F2 D2 | EF GA B4 | d2 d2 c2 B2 | A2 G2 F4 |1 c2 cB A2 F2 | B2 d2 c4 | d2 cB A2 B2 | %7
 B2 A2 B4 |] %8
V:2
 B,2 B,2 C2 B,2 | B,2 E2 D4 | F2 F2 F2 F2 | F2 =E2 F4 |1 F2 C2 C2 F2 | F2 F2 F4 | F2 F2 F2 F2 | %7
 E2 C2 D4 |] %8
V:3
 D,2 G,2 A,2 F,2 | G,2 E,2 F,4 | B,2 B,2 A,2 B,2 | C3 B, A,4 |1 %4
"^Copyright 2008 Hymnary.org. You may use this score in personal and corporate worship settings. Commercial use and republication are prohibited without written consent." A,2 G,2 F,2 A,2 | %5
 B,2 B,2 A,4 | B,2 A,B, C2 B,2 | G,2 F,2 F,4 |] %8
V:4
 B,,2 G,,2 F,,2 B,,2 | E,2 C,2 B,,4 | B,,C, D,E, F,2 D,2 | C,2 C,2 F,4 |1 F,2 =E,2 F,2 F,_E, | %5
 D,2 B,,2 F,4 | B,,2 C,D, E,2 D,2 | C,2 F,,2 B,,4 |] %8

